icons/accessibility-16.svg

<svg width="16" height="16" viewBox="0 0 16 16" fill="none" xmlns="http://www.w3.org/2000/svg">
<g clip-path="url(#clip0_7114_52186)">
<path fill-rule="evenodd" clip-rule="evenodd" d="M9.92348 5.30231C10.5815 4.752 11 3.92488 11 3C11 1.34315 9.65685 0 8 0C6.34315 0 5 1.34315 5 3C5 3.92488 5.41853 4.752 6.07652 5.30231C6.01421 5.36521 5.95494 5.43117 5.89897 5.5H2C1.58579 5.5 1.25 5.83579 1.25 6.25C1.25 6.66421 1.58579 7 2 7H5.29946L4.72157 12.1634L4.36037 15.1603C4.3108 15.5715 4.60399 15.945 5.01523 15.9946C5.42647 16.0442 5.80002 15.751 5.84959 15.3397L6.1316 13H9.8684L10.1504 15.3397C10.2 15.751 10.5735 16.0442 10.9848 15.9946C11.396 15.945 11.6892 15.5715 11.6396 15.1603L11.2784 12.1634L10.7005 7H14C14.4142 7 14.75 6.66421 14.75 6.25C14.75 5.83579 14.4142 5.5 14 5.5H10.101C10.0451 5.43117 9.98579 5.36521 9.92348 5.30231ZM9.5 3C9.5 3.82843 8.82843 4.5 8 4.5C7.17157 4.5 6.5 3.82843 6.5 3C6.5 2.17157 7.17157 1.5 8 1.5C8.82843 1.5 9.5 2.17157 9.5 3ZM9.1993 7.07256L9.69481 11.5H6.30519L6.8007 7.07256C6.86905 6.46183 7.38545 6 8 6C8.61455 6 9.13094 6.46183 9.1993 7.07256Z" fill="black"/>
</g>
<defs>
<clipPath id="clip0_7114_52186">
<rect width="16" height="16" fill="white"/>
</clipPath>
</defs>
</svg>

<svg xmlns="http://www.w3.org/2000/svg" width="16" height="16" viewBox="0 0 16 16"><path fill-rule="evenodd" d="M9.923 5.302a3 3 0 10-3.847 0A2.713 2.713 0 005.9 5.5H2A.75.75 0 002 7h3.3l-.578 5.163-.362 2.997a.75.75 0 101.49.18L6.132 13h3.736l.282 2.34a.75.75 0 101.49-.18l-.362-2.997L10.7 7H14a.75.75 0 000-1.5h-3.899a2.697 2.697 0 00-.178-.198zM9.5 3a1.5 1.5 0 11-3 0 1.5 1.5 0 013 0zm-.3 4.073l.495 4.427h-3.39l.496-4.427a1.207 1.207 0 012.398 0z"/></svg>
